src/assets/bookmark-icon.svg

<svg width="46" height="45" viewBox="0 0 46 45" fill="none" xmlns="http://www.w3.org/2000/svg">
<path fill-rule="evenodd" clip-rule="evenodd" d="M22.8931 2.34375H23.1069C27.4363 2.34375 30.8281 2.34375 33.4756 2.7C36.1831 3.06375 38.3206 3.825 39.9987 5.50125C41.6769 7.17938 42.4362 9.31687 42.8 12.0262C43.1562 14.6719 43.1562 18.0637 43.1562 22.3931V26.25H43.1469C43.1244 28.9013 43.0494 31.1213 42.8 32.9738C42.4362 35.6831 41.675 37.8206 39.9987 39.4987C38.3206 41.1769 36.1831 41.9362 33.4738 42.3C30.8281 42.6562 27.4363 42.6562 23.1069 42.6562H22.8931C18.5637 42.6562 15.1719 42.6562 12.5244 42.3C9.81687 41.9362 7.67938 41.175 6.00125 39.4987C4.32313 37.8206 3.56375 35.6831 3.2 32.9738C2.95063 31.1213 2.87562 28.9013 2.85312 26.25H2.84375V22.3931C2.84375 18.0637 2.84375 14.6719 3.2 12.0244C3.56375 9.31687 4.325 7.17938 6.00125 5.50125C7.67938 3.82313 9.81687 3.06375 12.5262 2.7C15.1719 2.34375 18.5637 2.34375 22.8931 2.34375ZM40.0119 12.4012C40.0438 12.6262 40.0719 12.8606 40.0962 13.1006C39.2738 12.257 38.3186 11.554 37.2688 11.0194C36.035 10.3894 34.6719 10.1119 33.0219 9.97688C31.4019 9.84375 29.3844 9.84375 26.8138 9.84375H19.1862C16.6156 9.84375 14.5981 9.84375 12.9781 9.975C11.3281 10.1119 9.965 10.3894 8.73125 11.0194C7.68136 11.554 6.7262 12.257 5.90375 13.1006C5.92812 12.8606 5.95625 12.6262 5.98625 12.4012C6.30875 10.0031 6.92375 8.5575 7.99062 7.48875C9.05937 6.42188 10.5031 5.80875 12.9012 5.48625C15.3387 5.16 18.5413 5.15625 23 5.15625C27.4587 5.15625 30.6612 5.16 33.0987 5.48625C35.4969 5.80875 36.9425 6.42375 38.0112 7.49062C39.0781 8.55937 39.6894 10.0031 40.0119 12.4012ZM5.98813 32.5987C5.71438 30.555 5.6675 27.9694 5.66 24.5569C5.66563 22.7588 5.68625 21.36 5.78187 20.2069C5.90187 18.7313 6.13437 17.7788 6.52625 17.0081C7.29036 15.508 8.50991 14.2885 10.01 13.5244C10.5931 13.2281 11.2812 13.0219 12.2206 12.8869V20.3081C12.2206 21.1856 12.2206 21.9037 12.2525 22.47C12.2863 23.0287 12.3538 23.6062 12.5844 24.1219C12.9855 25.0247 13.6907 25.7582 14.5771 26.1944C15.4636 26.6305 16.4749 26.7418 17.435 26.5087C17.9844 26.3775 18.485 26.0775 18.9463 25.7625C19.415 25.4438 19.9831 25.005 20.6788 24.4688L20.7125 24.4425C21.5938 23.7675 21.8413 23.5875 22.0681 23.49C22.3628 23.362 22.6806 23.296 23.0019 23.296C23.3231 23.296 23.641 23.362 23.9356 23.49C24.1625 23.5875 24.41 23.7656 25.2913 24.4425L25.325 24.4706C26.0187 25.005 26.5906 25.4438 27.0575 25.7644C27.5206 26.0775 28.0194 26.3756 28.5688 26.5087C29.5288 26.7418 30.5402 26.6305 31.4266 26.1944C32.313 25.7582 33.0183 25.0247 33.4194 24.1219C33.65 23.6062 33.7194 23.0287 33.7512 22.47C33.7831 21.9037 33.7831 21.1856 33.7831 20.3081V12.8869C34.7225 13.0219 35.4106 13.2281 35.9956 13.5244C37.495 14.2888 38.7139 15.5083 39.4775 17.0081C39.8713 17.7788 40.1019 18.7313 40.2219 20.2069C40.3156 21.36 40.3381 22.7588 40.3438 24.5569C40.3363 27.9694 40.2894 30.555 40.0156 32.6006C39.6931 34.9969 39.0781 36.4425 38.0112 37.5094C36.9425 38.5781 35.4987 39.1912 33.1006 39.5137C30.6631 39.84 27.4606 39.8438 23.0019 39.8438C18.5431 39.8438 15.3406 39.84 12.9031 39.5137C10.505 39.1912 9.05937 38.5762 7.99062 37.5094C6.92375 36.4406 6.31063 34.9969 5.98813 32.5987ZM26.75 12.6562C28.4263 12.6562 29.8062 12.6562 30.9688 12.6881V20.2631C30.9688 21.195 30.9688 21.8325 30.9406 22.3069C30.9125 22.8 30.86 22.9519 30.8469 22.9819C30.7131 23.2826 30.4781 23.5268 30.1827 23.6721C29.8874 23.8174 29.5505 23.8544 29.2306 23.7769C29.2006 23.7694 29.0487 23.7169 28.64 23.4394C28.0845 23.0455 27.5393 22.6372 27.005 22.215L26.8794 22.1175C26.1856 21.5831 25.6437 21.1669 25.055 20.91C24.4065 20.6282 23.707 20.4828 23 20.4828C22.293 20.4828 21.5935 20.6282 20.945 20.91C20.3563 21.1669 19.8144 21.5831 19.1206 22.1175L18.995 22.215C18.2581 22.7831 17.7519 23.1713 17.3581 23.4394C16.9513 23.7169 16.7994 23.7694 16.7694 23.7769C16.4493 23.8543 16.1122 23.817 15.8168 23.6713C15.5215 23.5257 15.2866 23.281 15.1531 22.98C15.14 22.9519 15.0875 22.8 15.0594 22.3088C15.0327 21.6278 15.0233 20.9464 15.0312 20.265V12.6881C16.1938 12.6562 17.5737 12.6562 19.25 12.6562H26.75Z" fill="#94CA21"/>
</svg>

import React from "react";

function BookmarkIcon() {
  return (
    <svg
      xmlns="http://www.w3.org/2000/svg"
      width="46"
      height="45"
      fill="none"
      viewBox="0 0 46 45"
    >
      <path
        fill="#94CA21"
        fillRule="evenodd"
        d="M22.893 2.344h.214c4.33 0 7.721 0 10.369.356 2.707.364 4.845 1.125 6.523 2.801 1.678 1.678 2.437 3.816 2.801 6.525.356 2.646.356 6.038.356 10.367v3.857h-.01c-.022 2.651-.097 4.871-.346 6.724-.364 2.71-1.125 4.847-2.801 6.525-1.678 1.678-3.816 2.437-6.525 2.801-2.646.356-6.038.356-10.367.356h-.214c-4.33 0-7.721 0-10.369-.356-2.707-.364-4.845-1.125-6.523-2.801-1.678-1.678-2.437-3.816-2.801-6.525-.25-1.853-.324-4.073-.347-6.724h-.01v-3.857c0-4.33 0-7.721.357-10.369.364-2.707 1.125-4.845 2.801-6.523C7.68 3.823 9.817 3.064 12.526 2.7c2.646-.356 6.038-.356 10.367-.356zM40.012 12.4c.032.225.06.46.084.7a10.78 10.78 0 00-2.827-2.082c-1.234-.63-2.597-.907-4.247-1.042-1.62-.133-3.638-.133-6.208-.133h-7.628c-2.57 0-4.588 0-6.208.131-1.65.137-3.013.414-4.247 1.044a10.78 10.78 0 00-2.827 2.082c.024-.24.052-.475.082-.7.323-2.398.938-3.844 2.005-4.912 1.068-1.067 2.512-1.68 4.91-2.003 2.438-.326 5.64-.33 10.099-.33 4.459 0 7.661.004 10.099.33 2.398.323 3.844.938 4.912 2.005 1.067 1.068 1.678 2.512 2 4.91zM5.988 32.6c-.274-2.044-.32-4.63-.328-8.042.006-1.798.026-3.197.122-4.35.12-1.476.352-2.428.744-3.199a7.969 7.969 0 013.484-3.484c.583-.296 1.271-.502 2.21-.637v7.421c0 .878 0 1.596.032 2.162.034.559.102 1.136.332 1.652a4.219 4.219 0 004.851 2.387c.55-.131 1.05-.431 1.511-.747.469-.318 1.037-.757 1.733-1.293l.034-.027c.88-.675 1.128-.855 1.355-.952a2.344 2.344 0 011.868 0c.227.098.474.276 1.355.953l.034.028c.694.534 1.266.973 1.733 1.293.463.314.961.612 1.51.745a4.219 4.219 0 004.851-2.387c.231-.516.3-1.093.332-1.652.032-.566.032-1.284.032-2.162v-7.421c.94.135 1.628.341 2.213.637a7.968 7.968 0 013.481 3.484c.394.77.625 1.723.745 3.199.094 1.153.116 2.552.122 4.35-.008 3.412-.055 5.998-.328 8.044-.323 2.396-.938 3.842-2.005 4.908-1.069 1.07-2.512 1.682-4.91 2.005-2.438.326-5.64.33-10.1.33-4.458 0-7.66-.004-10.098-.33-2.398-.323-3.844-.938-4.912-2.005-1.067-1.068-1.68-2.512-2.003-4.91zM26.75 12.656c1.676 0 3.056 0 4.219.032v7.575c0 .932 0 1.57-.028 2.044-.028.493-.081.645-.094.675a1.406 1.406 0 01-1.616.795c-.03-.008-.182-.06-.591-.338-.556-.393-1.1-.802-1.635-1.224l-.126-.098c-.693-.534-1.235-.95-1.824-1.207a5.156 5.156 0 00-4.11 0c-.589.257-1.13.673-1.824 1.207l-.126.098c-.737.568-1.243.956-1.637 1.224-.407.278-.559.33-.589.338a1.406 1.406 0 01-1.616-.797c-.013-.028-.066-.18-.094-.671a40.254 40.254 0 01-.028-2.044v-7.577c1.163-.032 2.543-.032 4.219-.032h7.5z"
        clipRule="evenodd"
      ></path>
    </svg>
  );
}

export default BookmarkIcon;
